Newaita-dark/apps/48/libreoffice-impress.svg

<svg height="48" viewBox="0 0 48 48" width="48" xmlns="http://www.w3.org/2000/svg" xmlns:xlink="http://www.w3.org/1999/xlink"><linearGradient id="a" gradientTransform="matrix(.111618 0 0 .093759 -3.945504 20.158178)" gradientUnits="userSpaceOnUse" x1="254" x2="254" y1="233.5" y2="254.666672"><stop offset="0" stop-opacity=".27451"/><stop offset="1" stop-opacity="0"/></linearGradient><linearGradient id="b"><stop offset="0" stop-opacity=".313726"/><stop offset=".222222" stop-opacity=".27451"/><stop offset="1" stop-opacity="0"/></linearGradient><radialGradient id="c" cx="450.908936" cy="189.579361" gradientTransform="matrix(.00000026 -.117199 -.210958 -.00000015 75.715273 95.392999)" gradientUnits="userSpaceOnUse" r="21.166656" xlink:href="#b"/><radialGradient id="d" cx="450.908936" cy="189.579361" gradientTransform="matrix(-.00000026 .117199 .210958 .00000015 -28.085722 -11.291218)" gradientUnits="userSpaceOnUse" r="21.166656" xlink:href="#b"/><radialGradient id="e" cx="450.908936" cy="189.579361" gradientTransform="matrix(-.00000026 -.117199 .210958 -.00000015 -28.085722 95.392999)" gradientUnits="userSpaceOnUse" r="21.166656" xlink:href="#b"/><radialGradient id="f" cx="450.908936" cy="189.579361" gradientTransform="matrix(.00000026 .117199 -.210958 .00000015 75.71527 -11.291219)" gradientUnits="userSpaceOnUse" r="21.166656" xlink:href="#b"/><linearGradient id="g"><stop offset="0" stop-color="#ff7043"/><stop offset="1" stop-color="#ff8a65"/></linearGradient><linearGradient id="h" gradientUnits="userSpaceOnUse" x1="23.814816" x2="23.814816" xlink:href="#g" y1="42.05096580616" y2="4.34417266504"/><linearGradient id="i" gradientUnits="userSpaceOnUse" x1="23.814816" x2="23.814816" y1="40.06639780616" y2="6.32874066504"><stop offset="0" stop-color="#e0e0e0"/><stop offset="1" stop-color="#eee"/></linearGradient><linearGradient id="j" gradientUnits="userSpaceOnUse" x1="23.814816" x2="23.814816" xlink:href="#g" y1="30.63976780616" y2="15.75550629293"/><path d="m11.410156 42.050781h24.808594v1.984375h-24.808594zm0 0" fill="url(#a)"/><path d="m36.21875 42.050781h3.96875v-1.984375h-3.96875zm0 0" fill="url(#c)"/><path d="m11.410156 42.050781h-3.96875v1.984375h3.96875zm0 0" fill="url(#d)"/><path d="m11.410156 42.050781h-3.96875v-1.984375h3.96875zm0 0" fill="url(#e)"/><path d="m36.21875 42.050781h3.96875v1.984375h-3.96875zm0 0" fill="url(#f)"/><path d="m9.921875 4.34375c-1.097656 0-1.984375.886719-1.984375 1.984375v33.738281c0 1.097656.886719 1.984375 1.984375 1.984375h27.785156c1.097657 0 1.984375-.886719 1.984375-1.984375v-22.582031l-13.140625-13.140625zm20.839844 0 8.929687 8.929688v-6.945313c0-1.097656-.886718-1.984375-1.984375-1.984375zm0 0" fill="url(#h)"/><path d="m10.914062 6.328125c-.546874 0-.992187.441406-.992187.992187v31.753907c0 .550781.445313.992187.992187.992187h25.800782c.550781 0 .992187-.441406.992187-.992187v-20.839844l-11.90625-11.90625zm0 0" fill="url(#i)"/><path d="m9.921875 4.34375c-1.097656 0-1.984375.886719-1.984375 1.984375v.496094c0-1.097657.886719-1.984375 1.984375-1.984375h16.628906l13.140625 13.140625v-.496094l-13.140625-13.140625zm20.839844 0 .496093.496094h6.449219c1.097657 0 1.984375.886718 1.984375 1.984375v-.496094c0-1.097656-.886718-1.984375-1.984375-1.984375zm0 0" fill="#fff" fill-opacity=".392157"/><path d="m10.914062 6.328125c-.546874 0-.992187.441406-.992187.992187v.746094c0-.550781.445313-.992187.992187-.992187h14.886719l11.90625 11.90625v-.746094l-11.90625-11.90625zm0 0" fill-opacity=".235294"/><path d="m9.921875 39.109375v.46875c0 .550781.445313.992187.992187.992187h25.800782c.550781 0 .992187-.441406.992187-.992187v-.46875c0 .550781-.441406.992187-.992187.992187h-25.800782c-.546874 0-.992187-.441406-.992187-.992187zm0 0" fill="#fff" fill-opacity=".392157"/><path d="m439.958009 255.093763c-22.04514 0-39.996182 17.793578-39.996182 39.996183v1280.03531c0 22.202606 17.951042 39.996183 39.996182 39.996183h1040.058215c22.202605 0 39.996182-17.793577 39.996182-39.996183v-840.077301l-479.954192-479.954192zm0 0" fill="none" stroke="#212121" stroke-linecap="round" stroke-linejoin="round" stroke-width="11.338583" transform="scale(.0248071)"/><path d="m30.761719 4.34375 8.929687 8.929688v-.484376l-8.445312-8.445312zm-22.824219 35.238281v.484375c0 1.097656.886719 1.984375 1.984375 1.984375h27.785156c1.097657 0 1.984375-.886719 1.984375-1.984375v-.484375c0 1.097657-.886718 1.984375-1.984375 1.984375h-27.785156c-1.097656 0-1.984375-.886718-1.984375-1.984375zm0 0" fill-opacity=".235294"/><path d="m399.961827 175.101398c-44.247746 0-79.992366 35.74462-79.992366 79.992365v1360.027676c0 44.247745 35.74462 79.992365 79.992366 79.992365h1120.050579c44.247746 0 79.992366-35.74462 79.992366-79.992365v-910.306819l-529.713223-529.713222zm840.077301 0 359.965644 359.965644v-279.973279c0-44.247745-35.74462-79.992365-79.992366-79.992365zm0 0" fill="none" stroke="#212121" stroke-linecap="round" stroke-linejoin="round" stroke-width="11.338583" transform="scale(.0248071)"/><path d="m25.304688 14.265625v7.445313h7.441406c0-4.125-3.320313-7.445313-7.441406-7.445313zm-1.488282 1.488281c-4.125 0-7.445312 3.320313-7.445312 7.445313 0 4.121093 3.320312 7.441406 7.445312 7.441406 4.121094 0 7.441406-3.320313 7.441406-7.441406h-7.441406zm0 0" fill="url(#j)"/><path d="m25.304688 14.265625v.746094c3.871093 0 7.03125 2.925781 7.402343 6.699219h.039063c0-4.125-3.320313-7.445313-7.441406-7.445313zm-1.488282 1.488281c-4.125 0-7.445312 3.320313-7.445312 7.445313 0 .125.003906.246093.011718.371093.191407-3.949218 3.433594-7.070312 7.433594-7.070312zm0 7.445313v.742187h7.402344c.027344-.246094.039062-.492187.039062-.742187zm0 0" fill="#fff" fill-opacity=".392157"/><path d="m25.304688 21.710938v.742187h7.441406c0-.25-.011719-.5-.039063-.742187zm-8.921876 1.859374c-.007812.121094-.011718.246094-.011718.371094 0 4.125 3.320312 7.441406 7.445312 7.441406 4.121094 0 7.441406-3.316406 7.441406-7.441406h-.039062c-.371094 3.769532-3.53125 6.699219-7.402344 6.699219-4 0-7.242187-3.121094-7.433594-7.070313zm0 0" fill-opacity=".235294"/><path d="m269.890893-62.847863v79.409083h79.367421c0-43.995798-35.413285-79.409083-79.367421-79.409083zm-15.873484 15.873484c-43.995798 0-79.409083 35.413285-79.409083 79.409083 0 43.954136 35.413285 79.367421 79.409083 79.367421 43.954136 0 79.367421-35.413285 79.367421-79.367421h-79.367421zm0 0" fill="none" stroke="#212121" stroke-linecap="round" stroke-linejoin="round" stroke-width="3" transform="matrix(.093759 0 0 .093759 0 20.158175)"/></svg>

<?xml version="1.0" encoding="UTF-8"?>
<svg xmlns="http://www.w3.org/2000/svg" xmlns:xlink="http://www.w3.org/1999/xlink" width="48px" height="48px" viewBox="0 0 48 48" version="1.1">
<defs>
<linearGradient id="linear0" gradientUnits="userSpaceOnUse" x1="254" y1="233.5" x2="254" y2="254.666672" gradientTransform="matrix(0.111618,0,0,0.093759,-3.945504,20.158178)">
<stop offset="0" style="stop-color:rgb(0%,0%,0%);stop-opacity:0.27451;"/>
<stop offset="1" style="stop-color:rgb(0%,0%,0%);stop-opacity:0;"/>
</linearGradient>
<radialGradient id="radial0" gradientUnits="userSpaceOnUse" cx="450.908936" cy="189.579361" fx="450.908936" fy="189.579361" r="21.166656" gradientTransform="matrix(0.000000261256,-0.117199,-0.210958,-0.000000152308,75.715273,95.392999)">
<stop offset="0" style="stop-color:rgb(0%,0%,0%);stop-opacity:0.313726;"/>
<stop offset="0.222222" style="stop-color:rgb(0%,0%,0%);stop-opacity:0.27451;"/>
<stop offset="1" style="stop-color:rgb(0%,0%,0%);stop-opacity:0;"/>
</radialGradient>
<radialGradient id="radial1" gradientUnits="userSpaceOnUse" cx="450.908936" cy="189.579361" fx="450.908936" fy="189.579361" r="21.166656" gradientTransform="matrix(-0.000000261256,0.117199,0.210958,0.000000152308,-28.085722,-11.291218)">
<stop offset="0" style="stop-color:rgb(0%,0%,0%);stop-opacity:0.313726;"/>
<stop offset="0.222222" style="stop-color:rgb(0%,0%,0%);stop-opacity:0.27451;"/>
<stop offset="1" style="stop-color:rgb(0%,0%,0%);stop-opacity:0;"/>
</radialGradient>
<radialGradient id="radial2" gradientUnits="userSpaceOnUse" cx="450.908936" cy="189.579361" fx="450.908936" fy="189.579361" r="21.166656" gradientTransform="matrix(-0.000000261256,-0.117199,0.210958,-0.000000152308,-28.085722,95.392999)">
<stop offset="0" style="stop-color:rgb(0%,0%,0%);stop-opacity:0.313726;"/>
<stop offset="0.222222" style="stop-color:rgb(0%,0%,0%);stop-opacity:0.27451;"/>
<stop offset="1" style="stop-color:rgb(0%,0%,0%);stop-opacity:0;"/>
</radialGradient>
<radialGradient id="radial3" gradientUnits="userSpaceOnUse" cx="450.908936" cy="189.579361" fx="450.908936" fy="189.579361" r="21.166656" gradientTransform="matrix(0.000000261256,0.117199,-0.210958,0.000000152308,75.71527,-11.291219)">
<stop offset="0" style="stop-color:rgb(0%,0%,0%);stop-opacity:0.313726;"/>
<stop offset="0.222222" style="stop-color:rgb(0%,0%,0%);stop-opacity:0.27451;"/>
<stop offset="1" style="stop-color:rgb(0%,0%,0%);stop-opacity:0;"/>
</radialGradient>
<linearGradient id="linear1" gradientUnits="userSpaceOnUse" x1="960" y1="1695.118164" x2="960" y2="175.118118" gradientTransform="matrix(0.0248071,0,0,0.0248071,0,0.00000000000000282)">
<stop offset="0" style="stop-color:rgb(100%,43.921569%,26.274511%);stop-opacity:1;"/>
<stop offset="1" style="stop-color:rgb(100%,54.11765%,39.607844%);stop-opacity:1;"/>
</linearGradient>
<linearGradient id="linear2" gradientUnits="userSpaceOnUse" x1="960" y1="1615.118164" x2="960" y2="255.118118" gradientTransform="matrix(0.0248071,0,0,0.0248071,0,0.00000000000000282)">
<stop offset="0" style="stop-color:rgb(87.843138%,87.843138%,87.843138%);stop-opacity:1;"/>
<stop offset="1" style="stop-color:rgb(93.333334%,93.333334%,93.333334%);stop-opacity:1;"/>
</linearGradient>
<linearGradient id="linear3" gradientUnits="userSpaceOnUse" x1="940" y1="1215.118164" x2="940" y2="615.118103" gradientTransform="matrix(0.0248071,0,0,0.0248071,0.496142,0.49621)">
<stop offset="0" style="stop-color:rgb(100%,43.921569%,26.274511%);stop-opacity:1;"/>
<stop offset="1" style="stop-color:rgb(100%,54.11765%,39.607844%);stop-opacity:1;"/>
</linearGradient>
</defs>
<g id="surface1">
<path style=" stroke:none;fill-rule:nonzero;fill:url(#linear0);" d="M 11.410156 42.050781 L 36.21875 42.050781 L 36.21875 44.035156 L 11.410156 44.035156 Z M 11.410156 42.050781 "/>
<path style=" stroke:none;fill-rule:nonzero;fill:url(#radial0);" d="M 36.21875 42.050781 L 40.1875 42.050781 L 40.1875 40.066406 L 36.21875 40.066406 Z M 36.21875 42.050781 "/>
<path style=" stroke:none;fill-rule:nonzero;fill:url(#radial1);" d="M 11.410156 42.050781 L 7.441406 42.050781 L 7.441406 44.035156 L 11.410156 44.035156 Z M 11.410156 42.050781 "/>
<path style=" stroke:none;fill-rule:nonzero;fill:url(#radial2);" d="M 11.410156 42.050781 L 7.441406 42.050781 L 7.441406 40.066406 L 11.410156 40.066406 Z M 11.410156 42.050781 "/>
<path style=" stroke:none;fill-rule:nonzero;fill:url(#radial3);" d="M 36.21875 42.050781 L 40.1875 42.050781 L 40.1875 44.035156 L 36.21875 44.035156 Z M 36.21875 42.050781 "/>
<path style=" stroke:none;fill-rule:nonzero;fill:url(#linear1);" d="M 9.921875 4.34375 C 8.824219 4.34375 7.9375 5.230469 7.9375 6.328125 L 7.9375 40.066406 C 7.9375 41.164062 8.824219 42.050781 9.921875 42.050781 L 37.707031 42.050781 C 38.804688 42.050781 39.691406 41.164062 39.691406 40.066406 L 39.691406 17.484375 L 26.550781 4.34375 Z M 30.761719 4.34375 L 39.691406 13.273438 L 39.691406 6.328125 C 39.691406 5.230469 38.804688 4.34375 37.707031 4.34375 Z M 30.761719 4.34375 "/>
<path style=" stroke:none;fill-rule:nonzero;fill:url(#linear2);" d="M 10.914062 6.328125 C 10.367188 6.328125 9.921875 6.769531 9.921875 7.320312 L 9.921875 39.074219 C 9.921875 39.625 10.367188 40.066406 10.914062 40.066406 L 36.714844 40.066406 C 37.265625 40.066406 37.707031 39.625 37.707031 39.074219 L 37.707031 18.234375 L 25.800781 6.328125 Z M 10.914062 6.328125 "/>
<path style=" stroke:none;fill-rule:nonzero;fill:rgb(100%,100%,100%);fill-opacity:0.392157;" d="M 9.921875 4.34375 C 8.824219 4.34375 7.9375 5.230469 7.9375 6.328125 L 7.9375 6.824219 C 7.9375 5.726562 8.824219 4.839844 9.921875 4.839844 L 26.550781 4.839844 L 39.691406 17.980469 L 39.691406 17.484375 L 26.550781 4.34375 Z M 30.761719 4.34375 L 31.257812 4.839844 L 37.707031 4.839844 C 38.804688 4.839844 39.691406 5.726562 39.691406 6.824219 L 39.691406 6.328125 C 39.691406 5.230469 38.804688 4.34375 37.707031 4.34375 Z M 30.761719 4.34375 "/>
<path style=" stroke:none;fill-rule:nonzero;fill:rgb(0%,0%,0%);fill-opacity:0.235294;" d="M 10.914062 6.328125 C 10.367188 6.328125 9.921875 6.769531 9.921875 7.320312 L 9.921875 8.066406 C 9.921875 7.515625 10.367188 7.074219 10.914062 7.074219 L 25.800781 7.074219 L 37.707031 18.980469 L 37.707031 18.234375 L 25.800781 6.328125 Z M 10.914062 6.328125 "/>
<path style=" stroke:none;fill-rule:nonzero;fill:rgb(100%,100%,100%);fill-opacity:0.392157;" d="M 9.921875 39.109375 L 9.921875 39.578125 C 9.921875 40.128906 10.367188 40.570312 10.914062 40.570312 L 36.714844 40.570312 C 37.265625 40.570312 37.707031 40.128906 37.707031 39.578125 L 37.707031 39.109375 C 37.707031 39.660156 37.265625 40.101562 36.714844 40.101562 L 10.914062 40.101562 C 10.367188 40.101562 9.921875 39.660156 9.921875 39.109375 Z M 9.921875 39.109375 "/>
<path style="fill:none;stroke-width:11.338583;stroke-linecap:round;stroke-linejoin:round;stroke:rgb(12.941177%,12.941177%,12.941177%);stroke-opacity:1;stroke-miterlimit:4;" d="M 439.958009 255.093763 C 417.912869 255.093763 399.961827 272.887341 399.961827 295.089946 L 399.961827 1575.125256 C 399.961827 1597.327862 417.912869 1615.121439 439.958009 1615.121439 L 1480.016224 1615.121439 C 1502.218829 1615.121439 1520.012406 1597.327862 1520.012406 1575.125256 L 1520.012406 735.047955 L 1040.058214 255.093763 Z M 439.958009 255.093763 " transform="matrix(0.0248071,0,0,0.0248071,0,0)"/>
<path style=" stroke:none;fill-rule:nonzero;fill:rgb(0%,0%,0%);fill-opacity:0.235294;" d="M 30.761719 4.34375 L 39.691406 13.273438 L 39.691406 12.789062 L 31.246094 4.34375 Z M 7.9375 39.582031 L 7.9375 40.066406 C 7.9375 41.164062 8.824219 42.050781 9.921875 42.050781 L 37.707031 42.050781 C 38.804688 42.050781 39.691406 41.164062 39.691406 40.066406 L 39.691406 39.582031 C 39.691406 40.679688 38.804688 41.566406 37.707031 41.566406 L 9.921875 41.566406 C 8.824219 41.566406 7.9375 40.679688 7.9375 39.582031 Z M 7.9375 39.582031 "/>
<path style="fill:none;stroke-width:11.338583;stroke-linecap:round;stroke-linejoin:round;stroke:rgb(12.941177%,12.941177%,12.941177%);stroke-opacity:1;stroke-miterlimit:4;" d="M 399.961827 175.101398 C 355.714081 175.101398 319.969461 210.846018 319.969461 255.093763 L 319.969461 1615.121439 C 319.969461 1659.369184 355.714081 1695.113804 399.961827 1695.113804 L 1520.012406 1695.113804 C 1564.260152 1695.113804 1600.004772 1659.369184 1600.004772 1615.121439 L 1600.004772 704.81462 L 1070.291549 175.101398 Z M 1240.039128 175.101398 L 1600.004772 535.067042 L 1600.004772 255.093763 C 1600.004772 210.846018 1564.260152 175.101398 1520.012406 175.101398 Z M 1240.039128 175.101398 " transform="matrix(0.0248071,0,0,0.0248071,0,0)"/>
<path style=" stroke:none;fill-rule:nonzero;fill:url(#linear3);" d="M 25.304688 14.265625 L 25.304688 21.710938 L 32.746094 21.710938 C 32.746094 17.585938 29.425781 14.265625 25.304688 14.265625 Z M 23.816406 15.753906 C 19.691406 15.753906 16.371094 19.074219 16.371094 23.199219 C 16.371094 27.320312 19.691406 30.640625 23.816406 30.640625 C 27.9375 30.640625 31.257812 27.320312 31.257812 23.199219 L 23.816406 23.199219 Z M 23.816406 15.753906 "/>
<path style=" stroke:none;fill-rule:nonzero;fill:rgb(100%,100%,100%);fill-opacity:0.392157;" d="M 25.304688 14.265625 L 25.304688 15.011719 C 29.175781 15.011719 32.335938 17.9375 32.707031 21.710938 L 32.746094 21.710938 C 32.746094 17.585938 29.425781 14.265625 25.304688 14.265625 Z M 23.816406 15.753906 C 19.691406 15.753906 16.371094 19.074219 16.371094 23.199219 C 16.371094 23.324219 16.375 23.445312 16.382812 23.570312 C 16.574219 19.621094 19.816406 16.5 23.816406 16.5 Z M 23.816406 23.199219 L 23.816406 23.941406 L 31.21875 23.941406 C 31.246094 23.695312 31.257812 23.449219 31.257812 23.199219 Z M 23.816406 23.199219 "/>
<path style=" stroke:none;fill-rule:nonzero;fill:rgb(0%,0%,0%);fill-opacity:0.235294;" d="M 25.304688 21.710938 L 25.304688 22.453125 L 32.746094 22.453125 C 32.746094 22.203125 32.734375 21.953125 32.707031 21.710938 Z M 16.382812 23.570312 C 16.375 23.691406 16.371094 23.816406 16.371094 23.941406 C 16.371094 28.066406 19.691406 31.382812 23.816406 31.382812 C 27.9375 31.382812 31.257812 28.066406 31.257812 23.941406 L 31.21875 23.941406 C 30.847656 27.710938 27.6875 30.640625 23.816406 30.640625 C 19.816406 30.640625 16.574219 27.519531 16.382812 23.570312 Z M 16.382812 23.570312 "/>
<path style="fill:none;stroke-width:3;stroke-linecap:round;stroke-linejoin:round;stroke:rgb(12.941177%,12.941177%,12.941177%);stroke-opacity:1;stroke-miterlimit:4;" d="M 269.890893 -62.847863 L 269.890893 16.56122 L 349.258314 16.56122 C 349.258314 -27.434578 313.845029 -62.847863 269.890893 -62.847863 Z M 254.017409 -46.974379 C 210.021611 -46.974379 174.608326 -11.561094 174.608326 32.434704 C 174.608326 76.38884 210.021611 111.802125 254.017409 111.802125 C 297.971545 111.802125 333.38483 76.38884 333.38483 32.434704 L 254.017409 32.434704 Z M 254.017409 -46.974379 " transform="matrix(0.093759,0,0,0.093759,0,20.158175)"/>
</g>
</svg>
